X:1514
T:Blue Garters, The
R:reel
N:"collected from McFadden"
B:"O'Neill's Dance Music of Ireland, 1514"
T: na gairteini.de gorm.
Z:transcribed by John B. Walsh, walsh@math.ubc.ca 8/23/96
M:C|
L:1/8
K:F
e|f>c ((3ccc) a2 (gf)|((3gab) (ag) fdde|1 f>c ((3ccc) a2gf|((3gab) ag f2 (fg):|2 fgag fdcA|
BGcA F2 F||c|AFcF AFcF|BGdG BGdG|AFcF AFcF|BGcA F2 Fc|
AFcF AFcF|BGdG BGdG|FA ((3cde) fdcA|BGcA F2 F||


